svg/SJJB-OpenStreetMapIcons/shopping/computer.svg

<?xml version="1.0" encoding="UTF-8" standalone="no"?>
<!-- Created with Inkscape (http://www.inkscape.org/) -->

<svg
   xmlns:dc="http://purl.org/dc/elements/1.1/"
   xmlns:cc="http://creativecommons.org/ns#"
   xmlns:rdf="http://www.w3.org/1999/02/22-rdf-syntax-ns#"
   xmlns:svg="http://www.w3.org/2000/svg"
   xmlns="http://www.w3.org/2000/svg"
   xmlns:sodipodi="http://sodipodi.sourceforge.net/DTD/sodipodi-0.dtd"
   xmlns:inkscape="http://www.inkscape.org/namespaces/inkscape"
   version="1.0"
   width="580"
   height="580"
   id="svg2"
   sodipodi:version="0.32"
   inkscape:version="0.47 r22583"
   sodipodi:docname="transport_helicopter_pad.svg"
   inkscape:output_extension="org.inkscape.output.svg.inkscape">
  <metadata
     id="metadata2975">
    <rdf:RDF>
      <cc:Work
         rdf:about="">
        <dc:format>image/svg+xml</dc:format>
        <dc:type
           rdf:resource="http://purl.org/dc/dcmitype/StillImage" />
        <cc:license
           rdf:resource="http://web.resource.org/cc/PublicDomain" />
        <dc:language>en</dc:language>
        <dc:title></dc:title>
      </cc:Work>
    </rdf:RDF>
  </metadata>
  <sodipodi:namedview
     inkscape:window-height="997"
     inkscape:window-width="1280"
     inkscape:pageshadow="2"
     inkscape:pageopacity="0.0"
     guidetolerance="10.0"
     gridtolerance="10.0"
     objecttolerance="10.0"
     borderopacity="1.0"
     bordercolor="#666666"
     pagecolor="#ffffff"
     id="base"
     inkscape:zoom="0.92167712"
     inkscape:cx="377.56033"
     inkscape:cy="282.49756"
     inkscape:window-x="0"
     inkscape:window-y="0"
     inkscape:current-layer="svg2"
     showgrid="false"
     inkscape:window-maximized="1" />
  <defs
     id="defs4">
    <inkscape:perspective
       sodipodi:type="inkscape:persp3d"
       inkscape:vp_x="0 : 290 : 1"
       inkscape:vp_y="0 : 1000 : 0"
       inkscape:vp_z="580 : 290 : 1"
       inkscape:persp3d-origin="290 : 193.33333 : 1"
       id="perspective2441" />
    <inkscape:perspective
       id="perspective3452"
       inkscape:persp3d-origin="30 : 20 : 1"
       inkscape:vp_z="60 : 30 : 1"
       inkscape:vp_y="0 : 1000 : 0"
       inkscape:vp_x="0 : 30 : 1"
       sodipodi:type="inkscape:persp3d" />
    <symbol
       viewBox="244.5 110 489 219.9"
       id="symbol-university">
      <path
         id="path4460"
         d="M79,43l57,119c0,0,21-96,104-96s124,106,124,106l43-133l82-17L0,17L79,43z" />
      <path
         id="path4462"
         d="M94,176l-21,39"
         stroke-width="20"
         stroke="#000000"
         fill="none" />
      <path
         id="path4464"
         d="M300,19c0,10.5-22.6,19-50.5,19S199,29.5,199,19s22.6-19,50.5-19S300,8.5,300,19z" />
      <path
         id="path4466"
         d="M112,216l-16-38L64,88c0,0-9-8-4-35s16-24,16-24"
         stroke-width="20"
         stroke="#000000"
         ill="none" />
    </symbol>
    <inkscape:perspective
       id="perspective4471"
       inkscape:persp3d-origin="372.04724 : 350.78739 : 1"
       inkscape:vp_z="744.09448 : 526.18109 : 1"
       inkscape:vp_y="0 : 1000 : 0"
       inkscape:vp_x="0 : 526.18109 : 1"
       sodipodi:type="inkscape:persp3d" />
    <inkscape:perspective
       id="perspective4668"
       inkscape:persp3d-origin="6 : 4 : 1"
       inkscape:vp_z="12 : 6 : 1"
       inkscape:vp_y="0 : 1000 : 0"
       inkscape:vp_x="0 : 6 : 1"
       sodipodi:type="inkscape:persp3d" />
    <inkscape:perspective
       id="perspective4725"
       inkscape:persp3d-origin="0.5 : 0.33333333 : 1"
       inkscape:vp_z="1 : 0.5 : 1"
       inkscape:vp_y="0 : 1000 : 0"
       inkscape:vp_x="0 : 0.5 : 1"
       sodipodi:type="inkscape:persp3d" />
    <inkscape:perspective
       id="perspective6330"
       inkscape:persp3d-origin="0.5 : 0.33333333 : 1"
       inkscape:vp_z="1 : 0.5 : 1"
       inkscape:vp_y="0 : 1000 : 0"
       inkscape:vp_x="0 : 0.5 : 1"
       sodipodi:type="inkscape:persp3d" />
    <inkscape:perspective
       id="perspective6376"
       inkscape:persp3d-origin="0.5 : 0.33333333 : 1"
       inkscape:vp_z="1 : 0.5 : 1"
       inkscape:vp_y="0 : 1000 : 0"
       inkscape:vp_x="0 : 0.5 : 1"
       sodipodi:type="inkscape:persp3d" />
    <inkscape:perspective
       id="perspective6376-2"
       inkscape:persp3d-origin="0.5 : 0.33333333 : 1"
       inkscape:vp_z="1 : 0.5 : 1"
       inkscape:vp_y="0 : 1000 : 0"
       inkscape:vp_x="0 : 0.5 : 1"
       sodipodi:type="inkscape:persp3d" />
    <inkscape:perspective
       id="perspective6407"
       inkscape:persp3d-origin="0.5 : 0.33333333 : 1"
       inkscape:vp_z="1 : 0.5 : 1"
       inkscape:vp_y="0 : 1000 : 0"
       inkscape:vp_x="0 : 0.5 : 1"
       sodipodi:type="inkscape:persp3d" />
  </defs>
  <g
     id="g1327">
    <path
       d="M 66.275,1.768 C 24.94,1.768 1.704,23.139 1.704,66.804 L 1.704,516.927 C 1.704,557.771 22.599,579.156 63.896,579.156 L 515.92,579.156 C 557.227,579.156 578.149,558.841 578.149,516.927 L 578.149,66.804 C 578.149,24.203 557.227,1.768 514.628,1.768 C 514.624,1.768 66.133,1.625 66.275,1.768 z "
       style="fill:#111;stroke:#eee;stroke-width:3.40799999"
       id="path1329" />
  </g>
  <g
     id="layer3"
     inkscape:label="Layout"
     style="display:none;stroke:#757575;stroke-opacity:1"
     transform="matrix(48.14969,0,0,48.14969,-536.27327,-33.306752)">
    <rect
       style="fill:none;stroke:#757575;stroke-width:0.10000000000000001;stroke-miterlimit:4;stroke-dasharray:none;stroke-opacity:1;display:inline"
       id="rect4134"
       width="10"
       height="10"
       x="1"
       y="1" />
    <rect
       style="fill:none;stroke:#757575;stroke-width:0.10000000000000001;stroke-miterlimit:4;stroke-dasharray:none;stroke-opacity:1;display:inline"
       id="rect4136"
       width="8"
       height="8"
       x="2"
       y="2" />
  </g>
  <g
     transform="matrix(31.340817,0,0,31.340817,41.132719,109.99261)"
     id="g3626">
    <path
       style="fill:none;fill-opacity:1;fill-rule:nonzero;stroke:#ffffff;stroke-width:1.03200883000000010;stroke-miterlimit:4;stroke-opacity:1;stroke-dasharray:none"
       d="m 2.4483515,8.2362225 11.1032965,0 c 0.30455,0 0.412539,0.2781433 0.549729,0.550351 l 1.4905,2.9574075 c 0.13719,0.272208 -0.245178,0.550352 -0.549728,0.550352 l -14.08429756,0 c -0.30454944,0 -0.68691783,-0.278144 -0.54972816,-0.550352 L 1.8986234,8.7865735 C 2.0358129,8.5143659 2.1438021,8.2362225 2.4483515,8.2362225 z"
       id="rect4428"
       sodipodi:nodetypes="ccssccssc" />
    <path
       id="path4432"
       d="m 1.4764801,9.2012489 13.0299889,0"
       style="fill:none;stroke:#ffffff;stroke-width:0.25799971999999999;stroke-linecap:butt;stroke-linejoin:miter;stroke-miterlimit:4;stroke-opacity:1;stroke-dasharray:none"
       sodipodi:nodetypes="cc" />
    <path
       style="fill:none;stroke:#ffffff;stroke-width:0.25799971999999999;stroke-linecap:butt;stroke-linejoin:miter;stroke-miterlimit:4;stroke-opacity:1;stroke-dasharray:none"
       d="m 1.0932552,9.8745606 13.7430548,0"
       id="path4434"
       sodipodi:nodetypes="cc" />
    <path
       id="path4436"
       d="m 0.79760876,10.637491 14.41115024,0"
       style="fill:none;stroke:#ffffff;stroke-width:0.25799971999999999;stroke-linecap:butt;stroke-linejoin:miter;stroke-miterlimit:4;stroke-opacity:1;stroke-dasharray:none"
       sodipodi:nodetypes="cc" />
  </g>
  <rect
     style="fill:none;fill-opacity:1;fill-rule:nonzero;stroke:#ffffff;stroke-width:32.34400000000000119;stroke-miterlimit:4;stroke-opacity:1;stroke-dasharray:none"
     id="rect4426"
     width="358.1069"
     height="264.1564"
     x="112.80586"
     y="80.974442"
     rx="16.027742"
     ry="16.027742" />
  <g
     id="g3658"
     transform="matrix(35.361376,0,0,35.361376,-2.12664,90.960089)">
    <path
       sodipodi:nodetypes="ccccc"
       id="path3619"
       d="m 6.445849,0.54307086 0,4.60246824 1.679497,-1.453411 2.034775,-0.7105565 -3.714272,-2.43850074 z"
       style="fill:#ffffff;fill-opacity:1;stroke:none" />
    <rect
       style="fill:#ffffff;fill-opacity:1;fill-rule:nonzero;stroke:none"
       id="rect3649"
       width="3.1568718"
       height="1.1156085"
       x="-9.5682249"
       y="4.6760492"
       transform="matrix(-0.5,-0.8660254,0.8660254,-0.5,0,0)"
       rx="0"
       ry="0" />
  </g>
  <rect
     style="fill:#ffffff;stroke:#ffffff;stroke-width:32.34400176999999843;stroke-miterlimit:4;stroke-opacity:1;stroke-dasharray:none;fill-opacity:1;opacity:0.1"
     id="rect4426-3"
     width="358.1069"
     height="264.1564"
     x="112.80586"
     y="80.974442"
     rx="16.027742"
     ry="16.027742" />
  <g
     transform="matrix(31.340817,0,0,31.340817,41.132719,109.99261)"
     id="g3626-4"
     style="fill:#ffffff;fill-opacity:1;opacity:0.1">
    <path
       style="fill:#ffffff;stroke:#ffffff;stroke-width:1.03200888999999996;stroke-miterlimit:4;stroke-opacity:1;stroke-dasharray:none;fill-opacity:1"
       d="m 2.4483515,8.2362225 11.1032965,0 c 0.30455,0 0.412539,0.2781433 0.549729,0.550351 l 1.4905,2.9574075 c 0.13719,0.272208 -0.245178,0.550352 -0.549728,0.550352 l -14.08429756,0 c -0.30454944,0 -0.68691783,-0.278144 -0.54972816,-0.550352 L 1.8986234,8.7865735 C 2.0358129,8.5143659 2.1438021,8.2362225 2.4483515,8.2362225 z"
       id="rect4428-2"
       sodipodi:nodetypes="ccssccssc" />
    <path
       id="path4432-0"
       d="m 1.4764801,9.2012489 13.0299889,0"
       style="fill:#ffffff;stroke:#ffffff;stroke-width:0.25799971999999999;stroke-linecap:butt;stroke-linejoin:miter;stroke-miterlimit:4;stroke-opacity:1;stroke-dasharray:none;fill-opacity:1"
       sodipodi:nodetypes="cc" />
    <path
       style="fill:#ffffff;stroke:#ffffff;stroke-width:0.25799971999999999;stroke-linecap:butt;stroke-linejoin:miter;stroke-miterlimit:4;stroke-opacity:1;stroke-dasharray:none;fill-opacity:1"
       d="m 1.0932552,9.8745606 13.7430548,0"
       id="path4434-5"
       sodipodi:nodetypes="cc" />
    <path
       id="path4436-9"
       d="m 0.79760876,10.637491 14.41115024,0"
       style="fill:#ffffff;stroke:#ffffff;stroke-width:0.25799971999999999;stroke-linecap:butt;stroke-linejoin:miter;stroke-miterlimit:4;stroke-opacity:1;stroke-dasharray:none;fill-opacity:1"
       sodipodi:nodetypes="cc" />
  </g>
</svg>

<svg xmlns="http://www.w3.org/2000/svg" viewBox="0 0 580 580"><path d="m66.28 1.768c-41.34 0-64.57 21.371-64.57 65.04v450.12c0 40.844 20.895 62.23 62.19 62.23h452.02c41.31 0 62.23-20.315 62.23-62.23v-450.12c0-42.601-20.922-65.04-63.52-65.04-.004 0-448.5-.143-448.35 0z" fill="#111" stroke="#eee" stroke-width="3.408"/><g transform="matrix(31.3408 0 0 31.3408 41.13 109.99)" fill="none" stroke="#fff"><path d="m2.448 8.236h11.1c.305 0 .413.278.55.55l1.491 2.957c.137.272-.245.55-.55.55h-14.08c-.305 0-.687-.278-.55-.55l1.491-2.957c.137-.272.245-.55.55-.55z" stroke-width="1.032"/><g stroke-width=".258"><path d="m1.476 9.201h13.03"/><path d="m1.093 9.875h13.743"/><path d="m.798 10.637h14.411"/></g></g><rect width="358.11" height="264.16" x="112.81" y="80.974" rx="16.03" fill="none" stroke="#fff" stroke-width="32.34"/><g transform="matrix(35.3614 0 0 35.3614-2.127 90.96)" fill="#fff"><path d="m6.446.543v4.602l1.679-1.453 2.035-.711-3.714-2.439"/><path transform="matrix(-.5-.86603.86603-.5 0 0)" d="m-9.568 4.676h3.157v1.116h-3.157z"/></g><g fill="#fff" stroke="#fff"><rect width="358.11" height="264.16" x="112.81" y="80.974" rx="16.03" opacity=".1" stroke-width="32.34"/><g transform="matrix(31.3408 0 0 31.3408 41.13 109.99)" opacity=".1"><path d="m2.448 8.236h11.1c.305 0 .413.278.55.55l1.491 2.957c.137.272-.245.55-.55.55h-14.08c-.305 0-.687-.278-.55-.55l1.491-2.957c.137-.272.245-.55.55-.55z" stroke-width="1.032"/><g stroke-width=".258"><path d="m1.476 9.201h13.03"/><path d="m1.093 9.875h13.743"/><path d="m.798 10.637h14.411"/></g></g></g></svg>
